; G-Code generated by Simplify3D(R) Version 4.0.1
; Mar 20, 2018 at 2:56:50 PM
; Settings Summary
;   processName,Process1
;   applyToModels,Motor Hole Pattern v1
;   profileName,MakerBot Replicator 2
;   profileVersion,2015-05-01 08:00:00
;   baseProfile,
;   printMaterial,PLA
;   printQuality,Medium
;   printExtruders,
;   extruderName,Primary Extruder
;   extruderToolheadNumber,0
;   extruderDiameter,0.4
;   extruderAutoWidth,0
;   extruderWidth,0.4
;   extrusionMultiplier,0.9
;   extruderUseRetract,1
;   extruderRetractionDistance,1
;   extruderExtraRestartDistance,0
;   extruderRetractionZLift,0
;   extruderRetractionSpeed,1200
;   extruderUseCoasting,0
;   extruderCoastingDistance,0.2
;   extruderUseWipe,0
;   extruderWipeDistance,5
;   primaryExtruder,0
;   layerHeight,0.2
;   topSolidLayers,3
;   bottomSolidLayers,3
;   perimeterOutlines,2
;   printPerimetersInsideOut,1
;   startPointOption,2
;   startPointOriginX,0
;   startPointOriginY,0
;   sequentialIslands,0
;   spiralVaseMode,0
;   firstLayerHeightPercentage,90
;   firstLayerWidthPercentage,100
;   firstLayerUnderspeed,0.5
;   useRaft,0
;   raftExtruder,0
;   raftTopLayers,3
;   raftBaseLayers,2
;   raftOffset,3
;   raftSeparationDistance,0.14
;   raftTopInfill,100
;   aboveRaftSpeedMultiplier,0.3
;   useSkirt,1
;   skirtExtruder,0
;   skirtLayers,1
;   skirtOutlines,2
;   skirtOffset,4
;   usePrimePillar,0
;   primePillarExtruder,999
;   primePillarWidth,12
;   primePillarLocation,7
;   primePillarSpeedMultiplier,1
;   useOozeShield,0
;   oozeShieldExtruder,999
;   oozeShieldOffset,2
;   oozeShieldOutlines,1
;   oozeShieldSidewallShape,1
;   oozeShieldSidewallAngle,30
;   oozeShieldSpeedMultiplier,1
;   infillExtruder,0
;   internalInfillPattern,Rectilinear
;   externalInfillPattern,Rectilinear
;   infillPercentage,20
;   outlineOverlapPercentage,20
;   infillExtrusionWidthPercentage,100
;   minInfillLength,5
;   infillLayerInterval,1
;   internalInfillAngles,45,-45
;   overlapInternalInfillAngles,0
;   externalInfillAngles,45,-45
;   generateSupport,0
;   supportExtruder,0
;   supportInfillPercentage,30
;   supportExtraInflation,0
;   supportBaseLayers,0
;   denseSupportExtruder,0
;   denseSupportLayers,0
;   denseSupportInfillPercentage,70
;   supportLayerInterval,1
;   supportHorizontalPartOffset,0.3
;   supportUpperSeparationLayers,1
;   supportLowerSeparationLayers,1
;   supportType,0
;   supportGridSpacing,4
;   maxOverhangAngle,45
;   supportAngles,0
;   temperatureName,Primary Extruder
;   temperatureNumber,0
;   temperatureSetpointCount,1
;   temperatureSetpointLayers,1
;   temperatureSetpointTemperatures,230
;   temperatureStabilizeAtStartup,0
;   temperatureHeatedBed,0
;   temperatureRelayBetweenLayers,0
;   temperatureRelayBetweenLoops,0
;   fanLayers,1,2
;   fanSpeeds,0,100
;   blipFanToFullPower,0
;   adjustSpeedForCooling,1
;   minSpeedLayerTime,15
;   minCoolingSpeedSlowdown,20
;   increaseFanForCooling,0
;   minFanLayerTime,45
;   maxCoolingFanSpeed,100
;   increaseFanForBridging,0
;   bridgingFanSpeed,100
;   use5D,1
;   relativeEdistances,1
;   allowEaxisZeroing,0
;   independentExtruderAxes,1
;   includeM10123,0
;   stickySupport,1
;   applyToolheadOffsets,0
;   gcodeXoffset,0
;   gcodeYoffset,0
;   gcodeZoffset,0
;   overrideMachineDefinition,1
;   machineTypeOverride,0
;   strokeXoverride,280
;   strokeYoverride,150
;   strokeZoverride,150
;   originOffsetXoverride,140
;   originOffsetYoverride,75
;   originOffsetZoverride,0
;   homeXdirOverride,1
;   homeYdirOverride,1
;   homeZdirOverride,-1
;   flipXoverride,1
;   flipYoverride,-1
;   flipZoverride,1
;   toolheadOffsets,0,0|0,0|0,0|0,0|0,0|0,0
;   overrideFirmwareConfiguration,1
;   firmwareTypeOverride,MakerBot/Sailfish Firmware
;   GPXconfigOverride,r2
;   baudRateOverride,115200
;   overridePrinterModels,1
;   printerModelsOverride,MakerBot_Replicator2.stl
;   startingGcode,; **** Replicator 2 start.gcode ****,M73 P0 ; enable build progress,G162 X Y F3000 ; home XY maximum,G161 Z F1200 ; home Z minimum,G92 Z-5 ; set Z to -5,G1 Z0 ; move Z to 0,G161 Z F100 ; home Z slowly,M132 X Y Z A B ; recall home offsets,G1 X-145 Y-75 Z30 F9000 ; move to wait position off table,G130 X20 Y20 Z20 A20 B20 ; lower stepper Vrefs while heating,M126 S[fan_speed_pwm],M104 S[extruder0_temperature] T0,M133 T0 ; stabilize extruder temperature,G130 X127 Y127 Z40 A127 B127 ; default stepper Vrefs,G92 A0 ; zero extruder,G1 Z0.4 ; position nozzle,G1 E25 F300 ; purge nozzle,G1 X-140 Y-70 Z0.15 F1200 ; slow wipe,G1 X-135 Y-65 Z0.5 F1200 ; lift,G92 A0 ; zero extruder,M73 P1 ;@body (notify GPX body has started),; **** end of start.gcode ****
;   layerChangeGcode,
;   retractionGcode,
;   toolChangeGcode,
;   endingGcode,; **** Replicator 2 end.gcode ****,M73 P100 ; end build progress,G1 Z155 F1000 ; send Z axis to bottom of machine,M104 S0 T0 ; cool down extruder,M127 ; stop blower fan,G162 X Y F3000 ; home XY maximum,M18 ; disable stepper,M72 P1 ; play Ta-Da song,; **** end of end.gcode ****
;   exportFileFormat,x3g
;   celebration,0
;   celebrationSong,Random Song
;   postProcessing,
;   defaultSpeed,4800
;   outlineUnderspeed,0.5
;   solidInfillUnderspeed,0.8
;   supportUnderspeed,0.8
;   rapidXYspeed,9000
;   rapidZspeed,1200
;   minBridgingArea,50
;   bridgingExtraInflation,0
;   bridgingExtrusionMultiplier,1
;   bridgingSpeedMultiplier,0.8
;   useFixedBridgingAngle,0
;   fixedBridgingAngle,0
;   applyBridgingToPerimeters,0
;   filamentDiameters,1.75|1.75|1.75|1.75|1.75|1.75
;   filamentPricesPerKg,46|46|46|46|46|46
;   filamentDensities,1.25|1.25|1.25|1.25|1.25|1.25
;   useMinPrintHeight,0
;   minPrintHeight,0
;   useMaxPrintHeight,0
;   maxPrintHeight,0
;   useDiaphragm,0
;   diaphragmLayerInterval,20
;   robustSlicing,1
;   mergeAllIntoSolid,0
;   onlyRetractWhenCrossingOutline,1
;   retractBetweenLayers,1
;   useRetractionMinTravel,0
;   retractionMinTravel,3
;   retractWhileWiping,0
;   onlyWipeOutlines,1
;   avoidCrossingOutline,0
;   maxMovementDetourFactor,3
;   toolChangeRetractionDistance,12
;   toolChangeExtraRestartDistance,-0.5
;   toolChangeRetractionSpeed,600
;   externalThinWallType,0
;   internalThinWallType,2
;   thinWallAllowedOverlapPercentage,10
;   singleExtrusionMinLength,1
;   singleExtrusionMinPrintingWidthPercentage,50
;   singleExtrusionMaxPrintingWidthPercentage,200
;   singleExtrusionEndpointExtension,0.2
;   horizontalSizeCompensation,0
G90
M83
; **** Replicator 2 start.gcode ****
M73 P0 ; enable build progress
G162 X Y F3000 ; home XY maximum
G161 Z F1200 ; home Z minimum
G92 Z-5 ; set Z to -5
G1 Z0 ; move Z to 0
G161 Z F100 ; home Z slowly
M132 X Y Z A B ; recall home offsets
G1 X-145 Y-75 Z30 F9000 ; move to wait position off table
G130 X20 Y20 Z20 A20 B20 ; lower stepper Vrefs while heating
M127
M104 S230 T0
M133 T0 ; stabilize extruder temperature
G130 X127 Y127 Z40 A127 B127 ; default stepper Vrefs
G92 A0 ; zero extruder
G1 Z0.4 ; position nozzle
G1 E25 F300 ; purge nozzle
G1 X-140 Y-70 Z0.15 F1200 ; slow wipe
G1 X-135 Y-65 Z0.5 F1200 ; lift
G92 A0 ; zero extruder
M73 P1 ;@body (notify GPX body has started)
; **** end of start.gcode ****
G1 E-1.0000 F1200
G1 Z0.180 F1200
; process Process1
; layer 1, Z = 0.180
M135 T0
; tool H0.200 W0.400
; skirt
G1 X-0.539 Y4.593 F9000
G1 E1.0000 F360
G1 X-0.549 Y4.592 E0.0003 F2400
G1 X-1.647 Y4.528 E0.0329
G1 X-1.659 Y4.527 E0.0004
G1 X-1.839 Y4.509 E0.0054
G1 X-1.851 Y4.507 E0.0004
G1 X-3.439 Y4.279 E0.0480
G1 X-3.454 Y4.276 E0.0005
G1 X-3.667 Y4.235 E0.0065
G1 X-3.682 Y4.231 E0.0005
G1 X-5.256 Y3.840 E0.0486
G1 X-5.271 Y3.836 E0.0005
G1 X-5.478 Y3.773 E0.0065
G1 X-5.493 Y3.768 E0.0005
G1 X-7.020 Y3.221 E0.0486
G1 X-7.034 Y3.215 E0.0005
G1 X-7.234 Y3.132 E0.0065
G1 X-7.248 Y3.126 E0.0005
G1 X-8.712 Y2.427 E0.0486
G1 X-8.725 Y2.420 E0.0005
G1 X-8.916 Y2.317 E0.0065
G1 X-8.929 Y2.310 E0.0005
G1 X-10.300 Y1.477 E0.0480
G1 X-10.311 Y1.470 E0.0004
G1 X-10.461 Y1.370 E0.0054
G1 X-10.471 Y1.362 E0.0004
G1 X-11.360 Y0.714 E0.0329
G1 X-11.368 Y0.708 E0.0003
G1 X-11.482 Y0.619 E0.0043
G1 X-11.490 Y0.613 E0.0003
G1 X-12.333 Y-0.093 E0.0329
G1 X-12.342 Y-0.101 E0.0004
G1 X-12.476 Y-0.223 E0.0054
G1 X-12.485 Y-0.232 E0.0004
G1 X-13.611 Y-1.349 E0.0475
G1 X-13.620 Y-1.358 E0.0004
G1 X-13.743 Y-1.490 E0.0054
G1 X-13.751 Y-1.500 E0.0004
G1 X-14.476 Y-2.351 E0.0335
G1 X-14.484 Y-2.360 E0.0004
G1 X-14.595 Y-2.503 E0.0054
G1 X-14.603 Y-2.513 E0.0004
G1 X-15.537 Y-3.817 E0.0480
G1 X-15.546 Y-3.829 E0.0005
G1 X-15.663 Y-4.012 E0.0065
G1 X-15.671 Y-4.025 E0.0005
G1 X-16.469 Y-5.416 E0.0480
G1 X-16.475 Y-5.427 E0.0004
G1 X-16.558 Y-5.588 E0.0054
G1 X-16.564 Y-5.599 E0.0004
G1 X-17.029 Y-6.595 E0.0329
G1 X-17.033 Y-6.605 E0.0003
G1 X-17.090 Y-6.738 E0.0043
G1 X-17.094 Y-6.747 E0.0003
G1 X-17.491 Y-7.772 E0.0329
G1 X-17.495 Y-7.784 E0.0004
G1 X-17.553 Y-7.955 E0.0054
G1 X-17.557 Y-7.967 E0.0004
G1 X-18.009 Y-9.507 E0.0480
G1 X-18.013 Y-9.521 E0.0005
G1 X-18.064 Y-9.732 E0.0065
G1 X-18.067 Y-9.747 E0.0005
G1 X-18.358 Y-11.306 E0.0475
G1 X-18.360 Y-11.316 E0.0003
G1 X-18.382 Y-11.459 E0.0043
G1 X-18.383 Y-11.469 E0.0003
G1 X-18.455 Y-12.078 E0.0184
G1 X-18.456 Y-12.088 E0.0003
G1 X-18.468 Y-12.233 E0.0044
G1 X-18.469 Y-12.243 E0.0003
G1 X-18.548 Y-13.820 E0.0472
G1 X-18.548 Y-13.832 E0.0004
G1 X-18.549 Y-14.012 E0.0054
G1 X-18.549 Y-14.025 E0.0004
G1 X-18.512 Y-15.114 E0.0326
G1 X-18.512 Y-15.124 E0.0003
G1 X-18.502 Y-15.267 E0.0043
G1 X-18.501 Y-15.277 E0.0003
G1 X-18.391 Y-16.372 E0.0329
G1 X-18.389 Y-16.384 E0.0004
G1 X-18.364 Y-16.563 E0.0054
G1 X-18.361 Y-16.575 E0.0004
G1 X-18.070 Y-18.134 E0.0475
G1 X-18.067 Y-18.147 E0.0004
G1 X-18.027 Y-18.323 E0.0054
G1 X-18.024 Y-18.335 E0.0004
G1 X-17.727 Y-19.413 E0.0335
G1 X-17.723 Y-19.425 E0.0004
G1 X-17.668 Y-19.597 E0.0054
G1 X-17.664 Y-19.609 E0.0004
G1 X-17.116 Y-21.097 E0.0475
G1 X-17.111 Y-21.109 E0.0004
G1 X-17.042 Y-21.276 E0.0054
G1 X-17.037 Y-21.287 E0.0004
G1 X-16.564 Y-22.300 E0.0335
G1 X-16.558 Y-22.311 E0.0004
G1 X-16.475 Y-22.472 E0.0054
G1 X-16.469 Y-22.483 E0.0004
G1 X-15.671 Y-23.874 E0.0480
G1 X-15.663 Y-23.887 E0.0005
G1 X-15.546 Y-24.070 E0.0065
G1 X-15.537 Y-24.082 E0.0005
G1 X-14.592 Y-25.401 E0.0486
G1 X-14.583 Y-25.413 E0.0005
G1 X-14.448 Y-25.583 E0.0065
G1 X-14.439 Y-25.594 E0.0005
G1 X-13.366 Y-26.811 E0.0486
G1 X-13.356 Y-26.822 E0.0005
G1 X-13.204 Y-26.978 E0.0065
G1 X-13.194 Y-26.988 E0.0005
G1 X-12.004 Y-28.091 E0.0486
G1 X-11.993 Y-28.101 E0.0005
G1 X-11.826 Y-28.240 E0.0065
G1 X-11.815 Y-28.250 E0.0005
G1 X-10.520 Y-29.227 E0.0486
G1 X-10.508 Y-29.236 E0.0005
G1 X-10.328 Y-29.358 E0.0065
G1 X-10.316 Y-29.366 E0.0005
G1 X-8.929 Y-30.209 E0.0486
G1 X-8.916 Y-30.216 E0.0005
G1 X-8.725 Y-30.319 E0.0065
G1 X-8.712 Y-30.326 E0.0005
G1 X-7.248 Y-31.025 E0.0486
G1 X-7.234 Y-31.031 E0.0005
G1 X-7.034 Y-31.114 E0.0065
G1 X-7.020 Y-31.120 E0.0005
G1 X-5.493 Y-31.667 E0.0486
G1 X-5.478 Y-31.672 E0.0005
G1 X-5.271 Y-31.735 E0.0065
G1 X-5.256 Y-31.739 E0.0005
G1 X-3.682 Y-32.130 E0.0486
G1 X-3.667 Y-32.134 E0.0005
G1 X-3.454 Y-32.175 E0.0065
G1 X-3.439 Y-32.178 E0.0005
G1 X-1.834 Y-32.409 E0.0486
G1 X-1.819 Y-32.410 E0.0005
G1 X-1.603 Y-32.430 E0.0065
G1 X-1.588 Y-32.431 E0.0005
G1 X0.015 Y-32.499 E0.0480
G1 X0.028 Y-32.499 E0.0004
G1 X0.208 Y-32.499 E0.0054
G1 X0.221 Y-32.499 E0.0004
G1 X1.338 Y-32.452 E0.0335
G1 X1.351 Y-32.451 E0.0004
G1 X1.531 Y-32.436 E0.0054
G1 X1.543 Y-32.435 E0.0004
G1 X3.135 Y-32.233 E0.0480
G1 X3.150 Y-32.231 E0.0005
G1 X3.363 Y-32.193 E0.0065
G1 X3.378 Y-32.190 E0.0005
G1 X4.941 Y-31.829 E0.0480
G1 X4.953 Y-31.826 E0.0004
G1 X5.127 Y-31.778 E0.0054
G1 X5.139 Y-31.774 E0.0004
G1 X6.204 Y-31.432 E0.0335
G1 X6.216 Y-31.428 E0.0004
G1 X6.385 Y-31.366 E0.0054
G1 X6.397 Y-31.361 E0.0004
G1 X7.861 Y-30.751 E0.0475
G1 X7.873 Y-30.746 E0.0004
G1 X8.036 Y-30.670 E0.0054
G1 X8.047 Y-30.664 E0.0004
G1 X9.024 Y-30.157 E0.0329
G1 X9.033 Y-30.153 E0.0003
G1 X9.158 Y-30.082 E0.0043
G1 X9.167 Y-30.077 E0.0003
G1 X10.107 Y-29.506 E0.0329
G1 X10.118 Y-29.499 E0.0004
G1 X10.268 Y-29.399 E0.0054
G1 X10.278 Y-29.391 E0.0004
G1 X11.560 Y-28.457 E0.0475
G1 X11.570 Y-28.449 E0.0004
G1 X11.711 Y-28.337 E0.0054
G1 X11.721 Y-28.329 E0.0004
G1 X12.566 Y-27.597 E0.0335
G1 X12.575 Y-27.588 E0.0004
G1 X12.707 Y-27.464 E0.0054
G1 X12.716 Y-27.455 E0.0004
G1 X13.836 Y-26.307 E0.0480
G1 X13.846 Y-26.296 E0.0005
G1 X13.989 Y-26.133 E0.0065
G1 X13.999 Y-26.122 E0.0005
G1 X15.009 Y-24.852 E0.0486
G1 X15.018 Y-24.840 E0.0005
G1 X15.144 Y-24.664 E0.0065
G1 X15.153 Y-24.651 E0.0005
G1 X16.030 Y-23.286 E0.0486
G1 X16.038 Y-23.274 E0.0005
G1 X16.146 Y-23.085 E0.0065
G1 X16.153 Y-23.072 E0.0005
G1 X16.880 Y-21.642 E0.0480
G1 X16.885 Y-21.631 E0.0004
G1 X16.960 Y-21.466 E0.0054
G1 X16.965 Y-21.455 E0.0004
G1 X17.380 Y-20.436 E0.0329
G1 X17.383 Y-20.427 E0.0003
G1 X17.433 Y-20.291 E0.0043
G1 X17.437 Y-20.282 E0.0003
G1 X17.776 Y-19.255 E0.0324
G1 X17.779 Y-19.245 E0.0003
G1 X17.820 Y-19.106 E0.0043
G1 X17.823 Y-19.097 E0.0003
G1 X18.092 Y-18.049 E0.0324
G1 X18.095 Y-18.039 E0.0003
G1 X18.126 Y-17.898 E0.0043
G1 X18.128 Y-17.888 E0.0003
G1 X18.330 Y-16.807 E0.0329
G1 X18.332 Y-16.795 E0.0004
G1 X18.358 Y-16.616 E0.0054
G1 X18.359 Y-16.603 E0.0004
G1 X18.521 Y-15.007 E0.0480
G1 X18.522 Y-14.992 E0.0005
G1 X18.533 Y-14.776 E0.0065
G1 X18.533 Y-14.761 E0.0005
G1 X18.533 Y-13.138 E0.0486
G1 X18.533 Y-13.123 E0.0005
G1 X18.522 Y-12.907 E0.0065
G1 X18.521 Y-12.892 E0.0005
G1 X18.359 Y-11.296 E0.0480
G1 X18.358 Y-11.283 E0.0004
G1 X18.332 Y-11.104 E0.0054
G1 X18.330 Y-11.092 E0.0004
G1 X18.128 Y-10.011 E0.0329
G1 X18.126 Y-10.001 E0.0003
G1 X18.095 Y-9.860 E0.0043
G1 X18.092 Y-9.850 E0.0003
G1 X17.823 Y-8.802 E0.0324
G1 X17.820 Y-8.793 E0.0003
G1 X17.779 Y-8.654 E0.0043
G1 X17.776 Y-8.644 E0.0003
G1 X17.437 Y-7.617 E0.0324
G1 X17.433 Y-7.608 E0.0003
G1 X17.383 Y-7.472 E0.0043
G1 X17.380 Y-7.463 E0.0003
G1 X16.972 Y-6.461 E0.0324
G1 X16.968 Y-6.452 E0.0003
G1 X16.909 Y-6.320 E0.0043
G1 X16.905 Y-6.310 E0.0003
G1 X16.431 Y-5.338 E0.0324
G1 X16.426 Y-5.329 E0.0003
G1 X16.359 Y-5.201 E0.0043
G1 X16.354 Y-5.193 E0.0003
G1 X15.816 Y-4.254 E0.0324
G1 X15.811 Y-4.246 E0.0003
G1 X15.734 Y-4.123 E0.0043
G1 X15.729 Y-4.114 E0.0003
G1 X15.129 Y-3.214 E0.0324
G1 X15.123 Y-3.206 E0.0003
G1 X15.039 Y-3.088 E0.0043
G1 X15.033 Y-3.080 E0.0003
G1 X14.374 Y-2.223 E0.0324
G1 X14.368 Y-2.215 E0.0003
G1 X14.276 Y-2.103 E0.0043
G1 X14.269 Y-2.095 E0.0003
G1 X13.554 Y-1.284 E0.0324
G1 X13.547 Y-1.276 E0.0003
G1 X13.448 Y-1.171 E0.0043
G1 X13.441 Y-1.164 E0.0003
G1 X12.660 Y-0.390 E0.0329
G1 X12.651 Y-0.381 E0.0004
G1 X12.518 Y-0.259 E0.0054
G1 X12.508 Y-0.251 E0.0004
G1 X11.292 Y0.767 E0.0475
G1 X11.282 Y0.775 E0.0004
G1 X11.139 Y0.885 E0.0054
G1 X11.129 Y0.893 E0.0004
G1 X10.229 Y1.526 E0.0329
G1 X10.221 Y1.531 E0.0003
G1 X10.100 Y1.611 E0.0043
G1 X10.092 Y1.616 E0.0003
G1 X9.167 Y2.178 E0.0324
G1 X9.158 Y2.183 E0.0003
G1 X9.033 Y2.254 E0.0043
G1 X9.024 Y2.258 E0.0003
G1 X8.064 Y2.757 E0.0324
G1 X8.054 Y2.761 E0.0003
G1 X7.924 Y2.823 E0.0043
G1 X7.915 Y2.828 E0.0003
G1 X6.907 Y3.268 E0.0329
G1 X6.895 Y3.272 E0.0004
G1 X6.727 Y3.338 E0.0054
G1 X6.715 Y3.342 E0.0004
G1 X5.213 Y3.852 E0.0475
G1 X5.201 Y3.856 E0.0004
G1 X5.028 Y3.907 E0.0054
G1 X5.016 Y3.910 E0.0004
G1 X3.948 Y4.176 E0.0329
G1 X3.939 Y4.178 E0.0003
G1 X3.797 Y4.208 E0.0043
G1 X3.787 Y4.210 E0.0003
G1 X2.705 Y4.403 E0.0329
G1 X2.692 Y4.405 E0.0004
G1 X2.513 Y4.429 E0.0054
G1 X2.501 Y4.431 E0.0004
G1 X0.921 Y4.577 E0.0475
G1 X0.909 Y4.578 E0.0004
G1 X0.728 Y4.587 E0.0054
G1 X0.716 Y4.587 E0.0004
G1 X-0.384 Y4.597 E0.0329
G1 X-0.394 Y4.596 E0.0003
G1 X-0.539 Y4.593 E0.0043
G1 X-0.525 Y4.193 F9000
G1 X-0.529 Y4.193 E0.0001 F2400
G1 X-1.619 Y4.129 E0.0327
G1 X-1.623 Y4.128 E0.0001
G1 X-1.794 Y4.111 E0.0052
G1 X-1.799 Y4.110 E0.0001
G1 X-3.377 Y3.884 E0.0477
G1 X-3.382 Y3.883 E0.0002
G1 X-3.585 Y3.843 E0.0062
G1 X-3.590 Y3.842 E0.0002
G1 X-5.155 Y3.453 E0.0483
G1 X-5.160 Y3.452 E0.0002
G1 X-5.357 Y3.392 E0.0062
G1 X-5.362 Y3.390 E0.0002
G1 X-6.880 Y2.846 E0.0483
G1 X-6.885 Y2.844 E0.0002
G1 X-7.075 Y2.765 E0.0062
G1 X-7.080 Y2.762 E0.0002
