; G-Code generated by Simplify3D(R) Version 4.0.1
; Apr 10, 2018 at 2:37:46 PM
; Settings Summary
;   processName,Process1
;   applyToModels,segmented02
;   profileName,FlashForge Creator Pro-(right) w/Supports AND RAFT
;   profileVersion,2018-04-06 09:28:33
;   baseProfile,FlashForge Creator Pro(2) (modified)
;   printMaterial,PLA
;   printQuality,Medium
;   printExtruders,Right Extruder Only
;   extruderName,Right Extruder,Left Extruder
;   extruderToolheadNumber,0,1
;   extruderDiameter,0.4,0.4
;   extruderAutoWidth,0,0
;   extruderWidth,0.4,0.4
;   extrusionMultiplier,0.9,0.9
;   extruderUseRetract,1,1
;   extruderRetractionDistance,1,1
;   extruderExtraRestartDistance,0,0
;   extruderRetractionZLift,0,0
;   extruderRetractionSpeed,1200,1200
;   extruderUseCoasting,0,0
;   extruderCoastingDistance,0.2,0.2
;   extruderUseWipe,0,0
;   extruderWipeDistance,5,5
;   primaryExtruder,0
;   layerHeight,0.2
;   topSolidLayers,3
;   bottomSolidLayers,3
;   perimeterOutlines,2
;   printPerimetersInsideOut,1
;   startPointOption,2
;   startPointOriginX,0
;   startPointOriginY,0
;   sequentialIslands,0
;   spiralVaseMode,0
;   firstLayerHeightPercentage,75
;   firstLayerWidthPercentage,100
;   firstLayerUnderspeed,0.45
;   useRaft,1
;   raftExtruder,0
;   raftTopLayers,2
;   raftBaseLayers,2
;   raftOffset,3
;   raftSeparationDistance,0.14
;   raftTopInfill,100
;   aboveRaftSpeedMultiplier,0.3
;   useSkirt,1
;   skirtExtruder,0
;   skirtLayers,1
;   skirtOutlines,2
;   skirtOffset,4
;   usePrimePillar,0
;   primePillarExtruder,999
;   primePillarWidth,12
;   primePillarLocation,7
;   primePillarSpeedMultiplier,1
;   useOozeShield,0
;   oozeShieldExtruder,999
;   oozeShieldOffset,2
;   oozeShieldOutlines,1
;   oozeShieldSidewallShape,1
;   oozeShieldSidewallAngle,30
;   oozeShieldSpeedMultiplier,1
;   infillExtruder,0
;   internalInfillPattern,Rectilinear
;   externalInfillPattern,Rectilinear
;   infillPercentage,15
;   outlineOverlapPercentage,20
;   infillExtrusionWidthPercentage,100
;   minInfillLength,5
;   infillLayerInterval,1
;   internalInfillAngles,45,-45
;   overlapInternalInfillAngles,0
;   externalInfillAngles,45,-45
;   generateSupport,1
;   supportExtruder,0
;   supportInfillPercentage,30
;   supportExtraInflation,0
;   supportBaseLayers,0
;   denseSupportExtruder,0
;   denseSupportLayers,0
;   denseSupportInfillPercentage,70
;   supportLayerInterval,1
;   supportHorizontalPartOffset,0.3
;   supportUpperSeparationLayers,1
;   supportLowerSeparationLayers,1
;   supportType,0
;   supportGridSpacing,4
;   maxOverhangAngle,45
;   supportAngles,0
;   temperatureName,Right Extruder,Left Extruder,Heated Build Platform
;   temperatureNumber,0,1,0
;   temperatureSetpointCount,1,1,1
;   temperatureSetpointLayers,1,1,1
;   temperatureSetpointTemperatures,230,0,60
;   temperatureStabilizeAtStartup,0,0,0
;   temperatureHeatedBed,0,0,1
;   temperatureRelayBetweenLayers,0,0,0
;   temperatureRelayBetweenLoops,0,0,0
;   fanLayers,1,2
;   fanSpeeds,0,100
;   blipFanToFullPower,0
;   adjustSpeedForCooling,1
;   minSpeedLayerTime,15
;   minCoolingSpeedSlowdown,20
;   increaseFanForCooling,0
;   minFanLayerTime,45
;   maxCoolingFanSpeed,100
;   increaseFanForBridging,1
;   bridgingFanSpeed,100
;   use5D,1
;   relativeEdistances,1
;   allowEaxisZeroing,0
;   independentExtruderAxes,1
;   includeM10123,0
;   stickySupport,1
;   applyToolheadOffsets,0
;   gcodeXoffset,0
;   gcodeYoffset,0
;   gcodeZoffset,0
;   overrideMachineDefinition,1
;   machineTypeOverride,0
;   strokeXoverride,225
;   strokeYoverride,145
;   strokeZoverride,150
;   originOffsetXoverride,112.5
;   originOffsetYoverride,72.5
;   originOffsetZoverride,0
;   homeXdirOverride,1
;   homeYdirOverride,1
;   homeZdirOverride,-1
;   flipXoverride,1
;   flipYoverride,-1
;   flipZoverride,1
;   toolheadOffsets,0,0|34,0|0,0|0,0|0,0|0,0
;   overrideFirmwareConfiguration,1
;   firmwareTypeOverride,MakerBot/Sailfish Firmware
;   GPXconfigOverride,r1d
;   baudRateOverride,115200
;   overridePrinterModels,1
;   printerModelsOverride,FlashForge_CreatorPro.stl
;   startingGcode,; **** Replicator 1 dual start.gcode ****,M73 P0 ; enable build progress,G162 X Y F3000 ; home XY maximum,G161 Z F1200 ; home Z minimum,G92 Z-5 ; set Z to -5,G1 Z0 ; move Z to 0,G161 Z F100 ; home Z slowly,M132 X Y Z A B ; recall home offsets,M135 T0 ; load right extruder offsets,G1 X150 Y-70 Z30 F9000 ; move to wait position right hand side of the table,G130 X20 Y20 Z20 A20 B20 ; lower stepper Vrefs while heating,M126 S[fan_speed_pwm],M140 S[bed0_temperature] T0,M134 T0 ; stabilize bed temperature,M104 S[extruder0_temperature] T0,M133 T0 ; stabilize right extruder temperature,G130 X127 Y127 Z40 A127 B127 ; default stepper Vrefs,G92 A0 B0 ; zero extruders,G1 Z0.4 ; position nozzle,G1 X110 Y-70 E25 F300 ; purge nozzle,G1 X120 Y-70 Z0.15 F1200 ; slow wipe,G1 X110 Y-70 Z0.5 F1200 ; lift,G92 A0 B0 ; zero extruders,M73 P1 ;@body (notify GPX body has started),; **** end of start.gcode ****
;   layerChangeGcode,
;   retractionGcode,
;   toolChangeGcode,
;   endingGcode,; **** Replicator 1 dual end.gcode ****,M73 P100 ; end build progress,G1 Z150 F1000 ; send Z axis to bottom of machine,M140 S0 T0 ; cool down HBP,M104 S0 T0 ; cool down right extruder,M104 S0 T1 ; cool down left extruder,M127 ; stop blower fan,G162 X Y F3000 ; home XY maximum,M18 ; disable stepper,M72 P1 ; play Ta-Da song,; **** end of end.gcode ****
;   exportFileFormat,x3g
;   celebration,0
;   celebrationSong,Random Song
;   postProcessing,
;   defaultSpeed,3600
;   outlineUnderspeed,0.5
;   solidInfillUnderspeed,0.8
;   supportUnderspeed,0.8
;   rapidXYspeed,4200
;   rapidZspeed,1200
;   minBridgingArea,50
;   bridgingExtraInflation,0
;   bridgingExtrusionMultiplier,1
;   bridgingSpeedMultiplier,0.8
;   useFixedBridgingAngle,0
;   fixedBridgingAngle,0
;   applyBridgingToPerimeters,0
;   filamentDiameters,1.75|1.75|1.75|1.75|1.75|1.75
;   filamentPricesPerKg,46|46|46|46|46|46
;   filamentDensities,1.25|1.25|1.25|1.25|1.25|1.25
;   useMinPrintHeight,0
;   minPrintHeight,0
;   useMaxPrintHeight,0
;   maxPrintHeight,0
;   useDiaphragm,0
;   diaphragmLayerInterval,20
;   robustSlicing,1
;   mergeAllIntoSolid,0
;   onlyRetractWhenCrossingOutline,1
;   retractBetweenLayers,1
;   useRetractionMinTravel,0
;   retractionMinTravel,3
;   retractWhileWiping,0
;   onlyWipeOutlines,1
;   avoidCrossingOutline,0
;   maxMovementDetourFactor,3
;   toolChangeRetractionDistance,12
;   toolChangeExtraRestartDistance,-0.5
;   toolChangeRetractionSpeed,600
;   externalThinWallType,0
;   internalThinWallType,2
;   thinWallAllowedOverlapPercentage,10
;   singleExtrusionMinLength,1
;   singleExtrusionMinPrintingWidthPercentage,50
;   singleExtrusionMaxPrintingWidthPercentage,200
;   singleExtrusionEndpointExtension,0.2
;   horizontalSizeCompensation,0
G90
M83
; **** Replicator 1 dual start.gcode ****
M73 P0 ; enable build progress
G162 X Y F3000 ; home XY maximum
G161 Z F1200 ; home Z minimum
G92 Z-5 ; set Z to -5
G1 Z0 ; move Z to 0
G161 Z F100 ; home Z slowly
M132 X Y Z A B ; recall home offsets
M135 T0 ; load right extruder offsets
G1 X150 Y-70 Z30 F9000 ; move to wait position right hand side of the table
G130 X20 Y20 Z20 A20 B20 ; lower stepper Vrefs while heating
M127
M140 S60 T0
M134 T0 ; stabilize bed temperature
M104 S230 T0
M133 T0 ; stabilize right extruder temperature
G130 X127 Y127 Z40 A127 B127 ; default stepper Vrefs
G92 A0 B0 ; zero extruders
G1 Z0.4 ; position nozzle
G1 X110 Y-70 E25 F300 ; purge nozzle
G1 X120 Y-70 Z0.15 F1200 ; slow wipe
G1 X110 Y-70 Z0.5 F1200 ; lift
G92 A0 B0 ; zero extruders
M73 P1 ;@body (notify GPX body has started)
; **** end of start.gcode ****
G1 E-1.0000 F1200
G1 Z0.375 F1200
; process Process1
; layer 1, Z = 0.375
M135 T0
; tool H0.500 W0.400
; skirt
G1 X-9.649 Y19.539 F4200
G1 E1.0000 F360
G1 X-10.312 Y19.500 E0.0497 F1620
G1 X-10.541 Y19.729 E0.0242
G1 X-10.761 Y19.820 E0.0179
G1 X-25.239 Y19.820 E1.0834
G1 X-25.459 Y19.729 E0.0179
G1 X-28.206 Y16.982 E0.2907
G1 X-28.223 Y16.985 E0.0013
G1 X-32.313 Y15.820 E0.3182
G1 X-41.239 Y15.820 E0.6680
G1 X-41.459 Y15.729 E0.0179
G1 X-45.368 Y11.820 E0.4137
G1 X-49.239 Y11.820 E0.2897
G1 X-49.459 Y11.729 E0.0179
G1 X-53.729 Y7.459 E0.4518
G1 X-53.820 Y7.239 E0.0179
G1 X-53.820 Y-7.239 E1.0834
G1 X-53.729 Y-7.459 E0.0179
G1 X-49.459 Y-11.729 E0.4518
G1 X-49.239 Y-11.820 E0.0179
G1 X-45.368 Y-11.820 E0.2897
G1 X-41.459 Y-15.729 E0.4137
G1 X-41.239 Y-15.820 E0.0179
G1 X-32.312 Y-15.820 E0.6680
G1 X-28.223 Y-16.985 E0.3182
G1 X-28.206 Y-16.982 E0.0013
G1 X-25.459 Y-19.729 E0.2907
G1 X-25.239 Y-19.820 E0.0179
G1 X-10.761 Y-19.820 E1.0834
G1 X-10.541 Y-19.729 E0.0179
G1 X-10.312 Y-19.500 E0.0242
G1 X-9.649 Y-19.539 E0.0497
G1 X-9.459 Y-19.729 E0.0201
G1 X-9.239 Y-19.820 E0.0179
G1 X9.239 Y-19.820 E1.3828
G1 X9.459 Y-19.729 E0.0179
G1 X9.523 Y-19.665 E0.0067
G1 X14.061 Y-19.665 E0.3396
G1 X14.280 Y-19.576 E0.0177
G1 X14.334 Y-19.522 E0.0057
G1 X14.541 Y-19.729 E0.0219
G1 X14.761 Y-19.820 E0.0179
G1 X29.239 Y-19.820 E1.0834
G1 X29.459 Y-19.729 E0.0179
G1 X31.633 Y-17.555 E0.2300
G1 X32.081 Y-17.440 E0.0346
G1 X32.084 Y-17.439 E0.0002
G1 X32.151 Y-17.422 E0.0052
G1 X32.153 Y-17.421 E0.0002
G1 X35.830 Y-16.400 E0.2855
G1 X35.994 Y-16.288 E0.0149
G1 X38.976 Y-12.299 E0.3727
G1 X39.037 Y-12.110 E0.0149
G1 X39.033 Y-11.820 E0.0217
G1 X49.239 Y-11.820 E0.7638
G1 X49.459 Y-11.729 E0.0179
G1 X53.729 Y-7.459 E0.4518
G1 X53.820 Y-7.239 E0.0179
G1 X53.820 Y7.239 E1.0834
G1 X53.729 Y7.459 E0.0179
G1 X49.459 Y11.729 E0.4518
G1 X49.239 Y11.820 E0.0179
G1 X39.033 Y11.820 E0.7638
G1 X39.038 Y12.121 E0.0225
G1 X38.976 Y12.312 E0.0150
G1 X35.969 Y16.310 E0.3744
G1 X35.804 Y16.422 E0.0150
G1 X31.634 Y17.554 E0.3234
G1 X29.459 Y19.729 E0.2301
G1 X29.239 Y19.820 E0.0179
G1 X14.761 Y19.820 E1.0834
G1 X14.541 Y19.729 E0.0179
G1 X14.334 Y19.522 E0.0219
G1 X14.280 Y19.576 E0.0057
G1 X14.061 Y19.665 E0.0177
G1 X9.523 Y19.665 E0.3396
G1 X9.459 Y19.729 E0.0067
G1 X9.239 Y19.820 E0.0179
G1 X-9.239 Y19.820 E1.3828
G1 X-9.459 Y19.729 E0.0179
G1 X-9.649 Y19.539 E0.0201
G1 E-1.0000 F1200
G1 X-9.474 Y19.148 F4200
G1 E1.0000 F1200
G1 X-10.468 Y19.090 E0.0745 F1620
G1 X-10.767 Y19.390 E0.0317
G1 X-10.841 Y19.420 E0.0060
G1 X-25.159 Y19.420 E1.0715
G1 X-25.233 Y19.390 E0.0060
G1 X-28.084 Y16.539 E0.3017
G1 X-28.111 Y16.559 E0.0026
G1 X-28.202 Y16.575 E0.0069
G1 X-32.257 Y15.420 E0.3155
G1 X-41.159 Y15.420 E0.6662
G1 X-41.233 Y15.390 E0.0060
G1 X-45.202 Y11.420 E0.4201
G1 X-49.159 Y11.420 E0.2961
G1 X-49.233 Y11.390 E0.0060
G1 X-53.390 Y7.233 E0.4399
G1 X-53.420 Y7.159 E0.0060
G1 X-53.420 Y-7.159 E1.0715
G1 X-53.390 Y-7.233 E0.0060
G1 X-49.233 Y-11.390 E0.4399
G1 X-49.159 Y-11.420 E0.0060
G1 X-45.202 Y-11.420 E0.2961
G1 X-41.233 Y-15.390 E0.4201
G1 X-41.159 Y-15.420 E0.0060
G1 X-32.257 Y-15.420 E0.6662
G1 X-28.202 Y-16.575 E0.3155
G1 X-28.111 Y-16.559 E0.0069
G1 X-28.084 Y-16.539 E0.0025
G1 X-25.233 Y-19.390 E0.3017
G1 X-25.159 Y-19.420 E0.0060
G1 X-10.841 Y-19.420 E1.0715
G1 X-10.767 Y-19.390 E0.0060
G1 X-10.468 Y-19.090 E0.0317
G1 X-9.474 Y-19.148 E0.0745
G1 X-9.233 Y-19.390 E0.0255
G1 X-9.159 Y-19.420 E0.0060
G1 X9.159 Y-19.420 E1.3709
G1 X9.233 Y-19.390 E0.0060
G1 X9.357 Y-19.265 E0.0132
G1 X13.982 Y-19.265 E0.3461
G1 X14.055 Y-19.235 E0.0059
G1 X14.336 Y-18.959 E0.0295
G1 X14.767 Y-19.390 E0.0456
G1 X14.841 Y-19.420 E0.0060
G1 X29.159 Y-19.420 E1.0715
G1 X29.233 Y-19.390 E0.0060
G1 X31.427 Y-17.195 E0.2322
G1 X31.980 Y-17.053 E0.0428
G1 X32.046 Y-17.035 E0.0051
G1 X35.659 Y-16.033 E0.2805
G1 X35.714 Y-15.995 E0.0050
G1 X38.616 Y-12.113 E0.3627
G1 X38.636 Y-12.050 E0.0050
G1 X38.626 Y-11.420 E0.0471
G1 X49.159 Y-11.420 E0.7882
G1 X49.233 Y-11.390 E0.0060
G1 X53.390 Y-7.233 E0.4399
G1 X53.420 Y-7.159 E0.0060
G1 X53.420 Y7.159 E1.0715
G1 X53.390 Y7.233 E0.0060
G1 X49.233 Y11.390 E0.4399
G1 X49.159 Y11.420 E0.0060
G1 X38.626 Y11.420 E0.7882
G1 X38.637 Y12.061 E0.0480
G1 X38.616 Y12.124 E0.0050
G1 X35.690 Y16.016 E0.3644
G1 X35.634 Y16.054 E0.0050
G1 X31.426 Y17.196 E0.3263
G1 X29.233 Y19.390 E0.2321
G1 X29.159 Y19.420 E0.0060
G1 X14.841 Y19.420 E1.0715
G1 X14.767 Y19.390 E0.0060
G1 X14.336 Y18.959 E0.0456
G1 X14.055 Y19.235 E0.0295
G1 X13.982 Y19.265 E0.0059
G1 X9.357 Y19.265 E0.3461
G1 X9.233 Y19.390 E0.0132
G1 X9.159 Y19.420 E0.0060
G1 X-9.159 Y19.420 E1.3709
G1 X-9.233 Y19.390 E0.0060
G1 X-9.474 Y19.148 E0.0255
G1 E-1.0000 F1200
; tool H0.500 W0.800
; raft
G1 X-8.283 Y14.610 F4200
G1 E1.0000 F1200
G1 X-12.260 Y14.377 E0.5964 F405
G1 X-12.703 Y14.820 E0.0937
G1 X-23.297 Y14.820 E1.5856
G1 X-24.820 Y13.297 E0.3224
G1 X-24.820 Y6.820 E0.9694
G1 X-26.896 Y6.820 E0.3107
G1 X-27.001 Y10.055 E0.4844
G1 X-29.051 Y11.550 E0.3797
G1 X-32.462 Y10.579 E0.5308
G1 X-32.703 Y10.820 E0.0511
G1 X-39.297 Y10.820 E0.9869
G1 X-40.820 Y9.297 E0.3224
G1 X-40.820 Y6.820 E0.3707
G1 X-47.297 Y6.820 E0.9694
G1 X-48.820 Y5.297 E0.3224
G1 X-48.820 Y-5.297 E1.5856
G1 X-47.297 Y-6.820 E0.3224
G1 X-40.820 Y-6.820 E0.9694
G1 X-40.820 Y-9.297 E0.3707
G1 X-39.297 Y-10.820 E0.3224
G1 X-32.703 Y-10.820 E0.9869
G1 X-32.462 Y-10.579 E0.0511
G1 X-29.051 Y-11.550 E0.5308
G1 X-27.001 Y-10.055 E0.3797
G1 X-26.896 Y-6.820 E0.4844
G1 X-24.820 Y-6.820 E0.3107
G1 X-24.820 Y-13.297 E0.9694
G1 X-23.297 Y-14.820 E0.3224
G1 X-12.703 Y-14.820 E1.5856
G1 X-12.251 Y-14.368 E0.0956
G1 X-10.688 Y-14.473 E0.2346
G1 X-10.673 Y-14.474 E0.0022
G1 X-8.276 Y-14.607 E0.3592
G1 X-7.880 Y-14.237 E0.0812
G1 X-7.297 Y-14.820 E0.1235
G1 X7.297 Y-14.820 E2.1843
G1 X7.849 Y-14.268 E0.1168
G1 X8.253 Y-14.665 E0.0848
G1 X12.142 Y-14.665 E0.5821
G1 X13.660 Y-13.173 E0.3185
G1 X13.751 Y-7.764 E0.8097
G1 X13.751 Y-7.726 E0.0056
G1 X13.741 Y-6.820 E0.1356
G1 X15.180 Y-6.820 E0.2154
G1 X15.180 Y-13.297 E0.9694
G1 X16.703 Y-14.820 E0.3224
G1 X27.297 Y-14.820 E1.5856
G1 X28.820 Y-13.297 E0.3224
G1 X28.820 Y-13.116 E0.0271
G1 X30.814 Y-12.603 E0.3082
G1 X30.838 Y-12.597 E0.0037
G1 X32.949 Y-12.011 E0.3278
G1 X34.012 Y-10.589 E0.2658
G1 X33.985 Y-8.890 E0.2543
G1 X34.015 Y-8.771 E0.0184
G1 X34.031 Y-7.815 E0.1431
G1 X34.031 Y-7.775 E0.0060
G1 X34.018 Y-6.820 E0.1429
G1 X47.297 Y-6.820 E1.9874
G1 X48.820 Y-5.297 E0.3224
G1 X48.820 Y5.297 E1.5856
G1 X47.297 Y6.820 E0.3224
G1 X34.018 Y6.820 E1.9874
G1 X34.031 Y7.775 E0.1429
G1 X34.031 Y7.815 E0.0060
G1 X34.015 Y8.771 E0.1431
G1 X33.985 Y8.890 E0.0184
G1 X34.012 Y10.593 E0.2549
G1 X32.940 Y12.019 E0.2670
G1 X28.820 Y13.137 E0.6390
G1 X28.820 Y13.297 E0.0239
G1 X27.297 Y14.820 E0.3224
G1 X16.703 Y14.820 E1.5856
G1 X15.180 Y13.297 E0.3224
G1 X15.180 Y6.820 E0.9694
G1 X13.741 Y6.820 E0.2154
G1 X13.751 Y7.726 E0.1356
G1 X13.751 Y7.764 E0.0056
G1 X13.660 Y13.173 E0.8097
G1 X12.142 Y14.665 E0.3185
G1 X8.253 Y14.665 E0.5821
G1 X7.849 Y14.268 E0.0848
G1 X7.297 Y14.820 E0.1168
G1 X-7.297 Y14.820 E2.1843
G1 X-7.881 Y14.236 E0.1236
G1 X-8.283 Y14.610 E0.0822
G1 E-1.0000 F1200
G1 X-24.020 Y9.143 F4200
G1 E1.0000 F1200
G1 X12.928 Y9.143 E5.5300 F405
G1 X12.889 Y11.429 E0.3422
G1 X-24.020 Y11.429 E5.5242
G1 X-24.020 Y12.966 E0.2300
G1 X-23.271 Y13.714 E0.1585
G1 X-12.729 Y13.714 E1.5779
G1 X-12.572 Y13.557 E0.0332
G1 X-9.898 Y13.714 E0.4009
G1 X-8.495 Y13.714 E0.2100
G1 X-7.862 Y13.124 E0.1296
G1 X-7.271 Y13.714 E0.1250
G1 X7.271 Y13.714 E2.1766
G1 X7.844 Y13.142 E0.1212
G1 X8.427 Y13.714 E0.1223
G1 X11.968 Y13.714 E0.5300
G1 E-1.0000 F1200
G1 X15.980 Y9.143 F4200
G1 E1.0000 F1200
G1 X33.189 Y9.143 E2.5756 F405
G1 X33.208 Y10.331 E0.1779
G1 X32.466 Y11.318 E0.1848
G1 X32.060 Y11.429 E0.0629
G1 X15.980 Y11.429 E2.4067
G1 X15.980 Y12.966 E0.2300
G1 X16.729 Y13.714 E0.1585
G1 X27.271 Y13.714 E1.5779
G1 E-1.0000 F1200
G1 X15.980 Y-6.857 F4200
G1 E1.0000 F1200
G1 X33.219 Y-6.857 E2.5801 F405
G1 X33.231 Y-7.780 E0.1381
G1 X33.231 Y-7.807 E0.0041
G1 X33.217 Y-8.664 E0.1283
G1 X33.183 Y-8.796 E0.0204
G1 X33.189 Y-9.143 E0.0519
G1 X15.980 Y-9.143 E2.5756
G1 X15.980 Y-11.429 E0.3421
G1 X32.056 Y-11.429 E2.4061
G1 X30.628 Y-11.825 E0.2218
G1 X30.612 Y-11.829 E0.0025
G1 X28.020 Y-12.496 E0.4005
G1 X28.020 Y-12.966 E0.0703
G1 X27.271 Y-13.714 E0.1585
